X:1
T:Title
%%score { ( 1 3 ) | 2 }
L:1/8
Q:1/4=180
M:6/4
K:G
V:1 treble nm="Grand Piano"
V:3 treble 
V:2 treble 
V:1
 B6 c4 B2 | [GB]4 [FA]2 [EG]6 | [FA]6 [Fd]4 [Fc]2 | B12 | B6 c4 B2 | [DGB]4 [CFA]2 [B,EG]6 | %6
w: William~B.~Bradbury * *||||||
 [CFA]6 [DGB]4 [CFA]2 | [B,DG]12 | A6 A4 B2 | [Fc]4 [Fd]2 [Fc]6 | B6 B4 c2 | d4 e2 d6 | %12
w: ||||||
 [Ge]6 c2 d2 [Ge]2 | [Gd]4 [DGB]2 [B,G]6 | [CFA]6 [DGB]4 [CFA]2 |[M:10/4] [B,DG]8- [B,DG]2 z2 z8 | %16
w: ||||
[M:6/4] [CEG]6 [B,DG]6 |] %17
w: |
V:2
 [G,DG]6 [G,EG]4 [G,DG]2 | [D,D]4 [D,C]2 [E,B,]6 | [D,D]6 [D,A,]4 [D,D]2 | [G,DG]12 | %4
 [G,DG]6 [G,EG]4 [G,DG]2 | D,4 D,2 E,6 | D,6 D,4 D,2 | G,,12 | [D,F,D]6 [D,F,D]4 [D,G,D]2 | %9
 [D,A,]4 [D,B,]2 [D,A,]6 | [G,G]6 [G,G]4 [G,A,G]2 | [G,B,G]4 [G,CG]2 [G,B,G]6 | %12
 [C,C]6 [E,C]2 [D,B,]2 [C,C]2 | [G,B,]4 G,2 G,6 | D,6 D,4 D,2 |[M:10/4] G,,8- G,,2 z2 z8 | %16
[M:6/4] C,6 G,,6 |] %17
V:3
 x12 | x12 | x12 | x12 | x12 | x12 | x12 | x12 | x12 | x12 | x12 | x12 | z6 .G6 | x12 | x12 | %15
[M:10/4] x20 |[M:6/4] x12 |] %17

